X:1
T:Maureen from Gibberland
M: 2/4
L:1/8
K: D
fe |:"D" dA FA |d>c df |"A" e>d cd | (ef g)f/g/|
 "D"af "A"ec |"G" d/e/d/B/ "D"A>F |"G" GB "A" A/B/A/G/ |"D" FD D2 :|
|:"D" f>e fd |"G" gg gz |"D" f>e fa |"Em" gf "A"ef/g/ |
 "D"af "A"ge|"G"d/e/d/B/"D" A>F| "G"GB "A"A/B/A/G/ |FD "D"D2 :|
